flaticon/weather/snow.svg

<svg xmlns="http://www.w3.org/2000/svg" width="32" height="32" viewBox="0 0 24 24">
    <path d="M21.191406 6.632812C21.113281 4.160156 19.085938 2.171875 16.59375 2.171875 15.28125 2.171875 14.097656 2.726562 13.257812 3.613281 11.953125 2.335938 10.261719 1.550781 8.4375 1.402344L8.007812 1.371094 8.003906 1.800781C7.988281 5.097656 5.296875 7.777344 2.003906 7.777344 1.546875 7.777344 1.074219 7.71875.597656 7.605469L.179688 7.503906.109375 7.929688C.0351562 8.382812 0 8.792969 0 9.179688 0 10.550781.371094 11.894531 1.0625 13.085938.921875 13.253906.789062 13.433594.671875 13.628906.03125 14.679688-.160156 15.914062.132812 17.109375.425781 18.304688 1.164062 19.3125 2.214844 19.953125 2.277344 19.992188 2.351562 20.011719 2.421875 20.011719 2.558594 20.011719 2.6875 19.941406 2.765625 19.820312 2.878906 19.628906 2.820312 19.382812 2.628906 19.269531 1.761719 18.742188 1.152344 17.90625.910156 16.921875.667969 15.933594.828125 14.914062 1.355469 14.042969 2.234375 12.597656 3.9375 11.917969 5.558594 12.339844 5.734375 12.914062 6.074219 13.441406 6.574219 13.851562 6.648438 13.914062 6.738281 13.945312 6.828125 13.945312 6.941406 13.945312 7.058594 13.894531 7.136719 13.796875 7.277344 13.628906 7.253906 13.375 7.082031 13.234375 6.730469 12.945312 6.484375 12.570312 6.34375 12.167969L6.285156 11.898438C6.125 11.171875 6.300781 10.425781 6.773438 9.851562 7.183594 9.355469 7.757812 9.058594 8.367188 8.992188 8.558594 8.972656 8.753906 8.976562 8.953125 9.003906 8.835938 9.480469 8.832031 9.980469 8.949219 10.476562 8.992188 10.660156 9.15625 10.785156 9.339844 10.785156 9.367188 10.785156 9.398438 10.78125 9.429688 10.773438 9.644531 10.722656 9.777344 10.507812 9.730469 10.292969 9.636719 9.90625 9.644531 9.515625 9.738281 9.140625L9.851562 8.859375C10.101562 8.234375 10.59375 7.75 11.207031 7.507812 11.261719 7.488281 11.320312 7.46875 11.378906 7.449219 11.429688 7.433594 11.480469 7.414062 11.535156 7.402344 11.800781 7.339844 12.078125 7.324219 12.363281 7.359375 12.703125 7.402344 13.03125 7.511719 13.332031 7.699219 13.875 8.035156 14.257812 8.566406 14.40625 9.191406 14.457031 9.40625 14.671875 9.539062 14.886719 9.488281 15.101562 9.4375 15.234375 9.222656 15.183594 9.007812 14.988281 8.175781 14.480469 7.46875 13.753906 7.019531 13.460938 6.835938 13.144531 6.707031 12.816406 6.628906 12.847656 5.839844 13.117188 5.089844 13.609375 4.453125L13.792969 4.21875C14.488281 3.453125 15.484375 2.972656 16.59375 2.972656 18.644531 2.972656 20.316406 4.605469 20.390625 6.636719 18.816406 6.835938 17.597656 8.179688 17.597656 9.808594 17.597656 10.03125 17.777344 10.207031 17.996094 10.207031 18.21875 10.207031 18.398438 10.03125 18.398438 9.808594 18.398438 8.484375 19.472656 7.40625 20.796875 7.40625 22.125 7.40625 23.199219 8.484375 23.199219 9.808594 23.199219 10.03125 23.378906 10.207031 23.601562 10.207031 23.820312 10.207031 24 10.03125 24 9.808594 24 8.175781 22.773438 6.828125 21.191406 6.632812zM.84375 8.472656C1.234375 8.542969 1.625 8.578125 2.003906 8.578125 5.585938 8.578125 8.542969 5.777344 8.789062 2.246094 10.292969 2.460938 11.679688 3.152344 12.761719 4.234375 12.316406 4.902344 12.046875 5.691406 12.003906 6.539062 11.78125 6.546875 11.554688 6.570312 11.332031 6.625 10.5 6.820312 9.792969 7.328125 9.34375 8.054688 9.308594 8.113281 9.273438 8.175781 9.242188 8.238281 9.210938 8.230469 9.175781 8.230469 9.144531 8.222656 9.101562 8.21875 9.0625 8.214844 9.023438 8.207031 8.917969 8.195312 8.816406 8.183594 8.714844 8.183594 8.644531 8.179688 8.578125 8.179688 8.511719 8.183594 8.4375 8.183594 8.367188 8.191406 8.296875 8.195312 8.207031 8.207031 8.117188 8.21875 8.027344 8.234375 7.984375 8.242188 7.941406 8.253906 7.898438 8.261719 7.789062 8.289062 7.679688 8.316406 7.574219 8.355469 7.5625 8.359375 7.546875 8.363281 7.535156 8.367188 7.003906 8.558594 6.515625 8.882812 6.136719 9.34375 5.628906 9.960938 5.394531 10.710938 5.410156 11.453125 5.144531 11.40625 4.875 11.378906 4.605469 11.378906 3.5 11.378906 2.460938 11.765625 1.632812 12.472656 1.089844 11.457031.800781 10.328125.800781 9.179688.800781 8.953125.816406 8.722656.84375 8.472656zM22.078125 13.8125C21.964844 13.621094 21.722656 13.554688 21.53125 13.664062L20.398438 14.320312 20.398438 13.011719C20.398438 12.789062 20.21875 12.609375 19.996094 12.609375 19.777344 12.609375 19.597656 12.789062 19.597656 13.011719L19.597656 14.320312 18.464844 13.664062C18.273438 13.554688 18.027344 13.621094 17.917969 13.8125 17.808594 14.003906 17.871094 14.246094 18.0625 14.359375L19.195312 15.011719 18.0625 15.667969C17.871094 15.777344 17.808594 16.023438 17.917969 16.214844 17.992188 16.339844 18.125 16.414062 18.265625 16.414062 18.332031 16.414062 18.402344 16.394531 18.464844 16.359375L19.597656 15.707031 19.597656 17.015625C19.597656 17.234375 19.777344 17.414062 19.996094 17.414062 20.21875 17.414062 20.398438 17.234375 20.398438 17.015625L20.398438 15.707031 21.53125 16.359375C21.59375 16.394531 21.660156 16.414062 21.730469 16.414062 21.867188 16.414062 22.003906 16.339844 22.078125 16.214844 22.1875 16.019531 22.121094 15.777344 21.929688 15.667969L20.796875 15.011719 21.929688 14.359375C22.121094 14.246094 22.1875 14.003906 22.078125 13.8125zM22.078125 13.8125"/>
    <path d="M13.671875 13.8125C13.558594 13.621094 13.316406 13.554688 13.125 13.664062L11.992188 14.320312 11.992188 13.011719C11.992188 12.789062 11.8125 12.609375 11.589844 12.609375 11.371094 12.609375 11.191406 12.789062 11.191406 13.011719L11.191406 14.320312 10.058594 13.664062C9.867188 13.554688 9.621094 13.621094 9.511719 13.8125 9.402344 14.003906 9.464844 14.246094 9.65625 14.359375L10.789062 15.011719 9.65625 15.667969C9.464844 15.777344 9.402344 16.023438 9.511719 16.214844 9.585938 16.339844 9.71875 16.414062 9.859375 16.414062 9.925781 16.414062 9.996094 16.394531 10.058594 16.359375L11.191406 15.707031 11.191406 17.015625C11.191406 17.234375 11.371094 17.414062 11.589844 17.414062 11.8125 17.414062 11.992188 17.234375 11.992188 17.015625L11.992188 15.707031 13.125 16.359375C13.1875 16.394531 13.257812 16.414062 13.324219 16.414062 13.460938 16.414062 13.597656 16.339844 13.671875 16.214844 13.78125 16.019531 13.714844 15.777344 13.523438 15.667969L12.390625 15.011719 13.523438 14.359375C13.714844 14.246094 13.78125 14.003906 13.671875 13.8125zM18.074219 19.027344C17.964844 18.835938 17.71875 18.769531 17.527344 18.882812L16.394531 19.535156 16.394531 18.226562C16.394531 18.007812 16.214844 17.828125 15.996094 17.828125 15.773438 17.828125 15.59375 18.007812 15.59375 18.226562L15.59375 19.535156 14.460938 18.882812C14.269531 18.769531 14.023438 18.835938 13.914062 19.027344 13.804688 19.21875 13.871094 19.464844 14.0625 19.574219L15.195312 20.230469 14.0625 20.882812C13.867188 20.992188 13.804688 21.238281 13.914062 21.429688 13.988281 21.558594 14.121094 21.628906 14.261719 21.628906 14.328125 21.628906 14.398438 21.613281 14.460938 21.578125L15.59375 20.921875 15.59375 22.230469C15.59375 22.453125 15.773438 22.628906 15.996094 22.628906 16.214844 22.628906 16.394531 22.453125 16.394531 22.230469L16.394531 20.921875 17.527344 21.578125C17.589844 21.613281 17.660156 21.628906 17.726562 21.628906 17.867188 21.628906 18 21.558594 18.074219 21.429688 18.183594 21.238281 18.117188 20.992188 17.925781 20.882812L16.792969 20.230469 17.925781 19.574219C18.121094 19.464844 18.183594 19.21875 18.074219 19.027344zM18.074219 19.027344"/>
</svg>

<svg xmlns="http://www.w3.org/2000/svg" width="32" height="32" viewBox="0 0 24 24">
    <path d="M21.191 6.633a4.606 4.606 0 0 0-4.597-4.461 4.582 4.582 0 0 0-3.336 1.441 7.777 7.777 0 0 0-4.82-2.21l-.43-.032-.004.43c-.016 3.297-2.707 5.976-6 5.976-.457 0-.93-.058-1.406-.172L.18 7.504l-.07.426A7.7 7.7 0 0 0 0 9.18c0 1.37.371 2.715 1.063 3.906a4.554 4.554 0 0 0-.93 4.023 4.585 4.585 0 0 0 2.082 2.844c.062.04.137.059.207.059a.41.41 0 0 0 .344-.192.4.4 0 0 0-.137-.55A3.79 3.79 0 0 1 .91 16.922a3.78 3.78 0 0 1 .445-2.879A3.789 3.789 0 0 1 5.56 12.34a3.132 3.132 0 0 0 1.015 1.512.393.393 0 0 0 .563-.055.398.398 0 0 0-.055-.563 2.401 2.401 0 0 1-.738-1.066l-.059-.27a2.39 2.39 0 0 1 .488-2.046 2.4 2.4 0 0 1 1.594-.86 2.46 2.46 0 0 1 .586.012 3.127 3.127 0 0 0-.004 1.473.4.4 0 0 0 .781-.184 2.395 2.395 0 0 1 .008-1.152l.114-.282a2.414 2.414 0 0 1 1.527-1.41c.05-.015.101-.035.156-.047a2.38 2.38 0 0 1 1.797.297c.543.336.926.867 1.074 1.492a.4.4 0 1 0 .778-.183 3.176 3.176 0 0 0-1.43-1.988 3.122 3.122 0 0 0-.938-.391c.032-.79.301-1.54.793-2.176l.184-.234a3.771 3.771 0 0 1 2.8-1.246 3.806 3.806 0 0 1 3.798 3.664 3.199 3.199 0 0 0-2.793 3.172c0 .222.18.398.398.398a.398.398 0 0 0 .402-.398 2.402 2.402 0 0 1 2.399-2.403 2.403 2.403 0 0 1 2.402 2.403c0 .222.18.398.403.398A.398.398 0 0 0 24 9.809a3.204 3.204 0 0 0-2.809-3.176zM.844 8.473c.39.07.781.105 1.16.105 3.582 0 6.539-2.8 6.785-6.332a7.003 7.003 0 0 1 3.973 1.988 4.557 4.557 0 0 0-.758 2.305c-.223.008-.45.031-.672.086a3.176 3.176 0 0 0-1.988 1.43c-.035.058-.07.12-.102.183-.031-.008-.066-.008-.097-.015a1.136 1.136 0 0 1-.122-.016c-.105-.012-.207-.023-.308-.023a1.762 1.762 0 0 0-.203 0c-.075 0-.145.007-.215.011-.09.012-.18.024-.27.04-.043.007-.086.019-.129.027-.109.027-.218.054-.324.093l-.039.012a3.204 3.204 0 0 0-1.398.977 3.197 3.197 0 0 0-.727 2.11 4.547 4.547 0 0 0-3.777 1.02A6.984 6.984 0 0 1 .8 9.179c0-.227.015-.457.043-.707zm0 0M22.078 13.813a.403.403 0 0 0-.547-.149l-1.133.656v-1.308a.401.401 0 0 0-.8 0v1.308l-1.133-.656a.402.402 0 0 0-.402.695l1.132.653-1.133.656a.4.4 0 0 0 .403.691l1.133-.652v1.309a.4.4 0 0 0 .8 0v-1.309l1.133.652a.402.402 0 0 0 .2.055.41.41 0 0 0 .347-.2.4.4 0 0 0-.148-.546l-1.133-.656 1.133-.653a.403.403 0 0 0 .148-.546zm0 0"/>
    <path d="M13.672 13.813a.403.403 0 0 0-.547-.149l-1.133.656v-1.308a.401.401 0 0 0-.8 0v1.308l-1.133-.656a.402.402 0 0 0-.403.695l1.133.653-1.133.656a.4.4 0 0 0 .403.691l1.132-.652v1.309a.4.4 0 0 0 .801 0v-1.309l1.133.652a.414.414 0 0 0 .2.055.41.41 0 0 0 .347-.2.4.4 0 0 0-.149-.546l-1.132-.656 1.132-.653a.403.403 0 0 0 .149-.546zm0 0M18.074 19.027a.397.397 0 0 0-.547-.144l-1.132.652v-1.308a.4.4 0 0 0-.801 0v1.308l-1.133-.652a.397.397 0 0 0-.547.144.402.402 0 0 0 .149.547l1.132.656-1.133.653a.398.398 0 0 0 .2.746.409.409 0 0 0 .199-.05l1.133-.657v1.308c0 .223.18.399.402.399a.398.398 0 0 0 .399-.399v-1.308l1.132.656a.409.409 0 0 0 .547-.148.402.402 0 0 0-.148-.547l-1.133-.653 1.133-.656a.398.398 0 0 0 .148-.547zm0 0"/>
</svg>
